X:1
T: The Forest of Mar
C:Alexander Walker
R:Reel
Q: 232
K:Dm
M:4/4
L:1/8
|:c|Ad dc de fd|cA FB GE CE|Ad dc de fd|cA GE D2 Dc|
Ad dc de fd|cA FB GE CE|Ad dc de fd|cA GE D2 Dd|
fd ad bd ad|ec gc ac gc|fd ad bd gd|c'a ge d2 df|
d2 Ad Fd Dd|c2 Gc Ec EC|DF EG FA Gg|fd ec d3:|
